destiny4.0/Norte/ilimitada_avanzada_300/img/section-mobile/unified_communication.svg

<?xml version="1.0" encoding="UTF-8"?>
<svg width="39px" height="38px" viewBox="0 0 39 38" version="1.1" xmlns="http://www.w3.org/2000/svg" xmlns:xlink="http://www.w3.org/1999/xlink">
    <title>Icons+Indicators / System-Icons / thunder-3</title>
    <g id="PDP" stroke="none" stroke-width="1" fill="none" fill-rule="evenodd">
        <g id="PDP-Oferta-Norte-Desktop---Destiny-4.0---Ilimitada-Avanzada-300" transform="translate(-33.000000, -1210.000000)">
            <g id="Blocks/-Desktop-/-Product-detail-/-Example" transform="translate(20.000000, 572.000000)">
                <g id="Product-detail-/-Desktop-Tablet-/-3-lines" transform="translate(0.000000, 621.000000)">
                    <g id="Icono" transform="translate(0.000000, 4.000000)">
                        <g id="unified-communication-mid" transform="translate(10.000000, 10.000000)">
                            <path d="M18.239375,30.1514583 L21.1658333,28.9597917 C21.896875,28.8016667 22.5797917,28.8979167 22.9120833,29.2508333 C23.41625,29.7870833 27.56875,34.5514583 27.9170833,34.9685417 C28.2654167,35.385625 28.2310417,36.293125 27.4083333,36.966875 C26.585625,37.640625 22.955625,40.1958333 21.8189583,39.8429167 C20.6822917,39.49 15.9270833,38.0691667 9.411875,26.6360417 C2.89666667,15.2029167 4.125,10.429375 4.4,9.27895833 C4.675,8.12854167 8.75416667,6.3525 9.76020833,5.99958333 C10.76625,5.64666667 11.56375,6.10270833 11.7470833,6.59541667 C11.955625,7.156875 13.8989583,13.1175 14.1052083,13.7958333 C14.2472917,14.2541667 13.9722917,14.8935417 13.4566667,15.4320833 C12.9410417,15.970625 10.8739583,18.0125 10.8739583,18.0125 C10.8739583,18.0125 11.2520833,20.03375 13.8004167,24.1702083 C16.5847917,28.689375 18.239375,30.1514583 18.239375,30.1514583 Z" id="68269b51-216b-4639-bde4-d908c15580e7" stroke="#666666" stroke-linecap="round" stroke-linejoin="round"></path>
                            <rect id="Rectangle" x="0" y="0" width="44" height="44"></rect>
                            <path d="M25.94625,19.5364583 C24.04875,20.618125 23.2420833,20.9595833 23.2420833,20.9595833 C22.7048297,21.1595537 22.1501524,21.3091555 21.5852083,21.4064583 C20.7891273,21.5421918 19.97901,21.5760751 19.174375,21.5072917 C19.174375,21.5072917 21.13375,20.3064583 21.9725,18.2691667 C21.32625,17.978125 20.2147917,17.4785417 19.6808333,17.070625 C19.1591518,16.6741629 18.6908367,16.2120099 18.2875,15.695625 C17.8976343,15.1924923 17.5834096,14.6350716 17.3547917,14.0410417 C17.1239898,13.4419761 16.9901578,12.8099491 16.9583333,12.16875 C16.912158,11.1558191 17.1126977,10.1468292 17.5427083,9.22854167 C17.9909614,8.28142665 18.6262874,7.4348449 19.4104167,6.73979167 C20.2520488,5.98726153 21.2172597,5.38565213 22.2635417,4.96145833 C23.3990963,4.49782601 24.6028289,4.22301888 25.8270833,4.14791667 C27.0445912,4.06646982 28.2671948,4.18648474 29.445625,4.503125 C30.5237505,4.79101351 31.5424372,5.26738338 32.4545833,5.91020833 C33.2996523,6.50251206 34.0121926,7.26421996 34.546875,8.146875 C34.546875,8.146875 35.365,9.3775 35.2870833,10.7433333" id="46d443e8-08fb-4879-8250-b8c6e27e622f" stroke="#666666" stroke-linecap="round" stroke-linejoin="round"></path>
                            <path d="M36.1120833,10.9610417 L35.75,10.855625 C34.7541665,10.5940371 33.7226237,10.4949842 32.6952083,10.5622917 C31.6638036,10.6225891 30.6487189,10.8477336 29.6885417,11.2291667 C28.8043163,11.5785011 27.9865582,12.0769072 27.2708333,12.7027083 C26.611891,13.2760447 26.0769396,13.977876 25.69875,14.7652083 C25.3381198,15.5198739 25.1696498,16.3519895 25.2083333,17.1875 C25.2516442,18.0200357 25.5029866,18.8284285 25.939375,19.53875 C26.3933546,20.2707102 26.9951519,20.8998264 27.70625,21.3858333 C28.4799388,21.9184747 29.3408263,22.3116909 30.25,22.5477083 C31.245791,22.8095343 32.2773727,22.9085909 33.3047917,22.8410417 L33.405625,22.8410417 C33.7523825,23.079097 34.1162155,23.291269 34.4941667,23.4758333 C34.9528787,23.7010142 35.4316257,23.882846 35.9241667,24.0189583 C36.4940164,24.176187 37.0798251,24.2684404 37.6704167,24.2939583 C38.351643,24.3221857 39.0337279,24.2652169 39.7008333,24.124375 C39.7008333,24.124375 37.5695833,22.8777083 37.51,21.5897917 C38.0155136,21.2920508 38.4859658,20.9384429 38.9125,20.535625 C39.316408,20.1546837 39.6705982,19.7242656 39.9666667,19.2545833 C40.2512137,18.8032603 40.4688901,18.3131024 40.6129167,17.799375 C40.9836086,16.4707532 40.7825685,15.0476885 40.0583333,13.87375 C39.7638129,13.3923072 39.4018765,12.955514 38.9835417,12.5766667 C38.1222433,11.8885103 37.1537142,11.3465676 36.1166667,10.9725" id="32c6b11f-114a-40de-8aae-738c60543e54" stroke="#E60000" stroke-linecap="round" stroke-linejoin="round"></path>
                        </g>
                    </g>
                </g>
            </g>
        </g>
    </g>
</svg>

<svg width="39" height="38" viewBox="0 0 39 38" xmlns="http://www.w3.org/2000/svg"><g id="PDP" stroke="none" stroke-width="1" fill="none" fill-rule="evenodd"><g id="PDP-Oferta-Norte-Desktop---Destiny-4.0---Ilimitada-Avanzada-300" transform="translate(-33 -1210)"><g id="Blocks/-Desktop-/-Product-detail-/-Example" transform="translate(20 572)"><g id="Product-detail-/-Desktop-Tablet-/-3-lines" transform="translate(0 621)"><g id="Icono" transform="translate(0 4)"><g id="unified-communication-mid" transform="translate(10 10)"><path d="M18.24 30.151l2.926-1.191c.73-.158 1.414-.062 1.746.29.504.537 4.657 5.301 5.005 5.719.348.417.314 1.324-.509 1.998-.822.674-4.452 3.229-5.589 2.876-1.137-.353-5.892-1.774-12.407-13.207S4.125 10.429 4.4 9.279c.275-1.15 4.354-2.926 5.36-3.28 1.006-.352 1.804.104 1.987.596.209.562 2.152 6.522 2.358 7.2.142.46-.133 1.099-.648 1.637-.516.539-2.583 2.58-2.583 2.58s.378 2.022 2.926 6.158c2.785 4.52 4.44 5.981 4.44 5.981z" id="68269b51-216b-4639-bde4-d908c15580e7" stroke="#666" stroke-linecap="round" stroke-linejoin="round"/><path id="Rectangle" d="M0 0h44v44H0z"/><path d="M25.946 19.536c-1.897 1.082-2.704 1.424-2.704 1.424-.537.2-1.092.35-1.657.446a9.52 9.52 0 01-2.41.101s1.959-1.2 2.797-3.238c-.646-.29-1.757-.79-2.291-1.198a7.613 7.613 0 01-1.393-1.375 6.531 6.531 0 01-.933-1.655 6.04 6.04 0 01-.397-1.872 6.26 6.26 0 01.585-2.94 7.764 7.764 0 011.867-2.49 9.81 9.81 0 012.854-1.778 11.25 11.25 0 013.563-.813 11.07 11.07 0 013.619.355 9.46 9.46 0 013.009 1.407 7.436 7.436 0 012.092 2.237s.818 1.23.74 2.596" id="46d443e8-08fb-4879-8250-b8c6e27e622f" stroke="#666" stroke-linecap="round" stroke-linejoin="round"/><path d="M36.112 10.961l-.362-.105a9.563 9.563 0 00-3.055-.294 9.673 9.673 0 00-3.006.667 8.314 8.314 0 00-2.418 1.474 6.417 6.417 0 00-1.572 2.062 5.074 5.074 0 00-.49 2.422 4.99 4.99 0 00.73 2.352 6.187 6.187 0 001.767 1.847 8.055 8.055 0 002.544 1.162 9.55 9.55 0 003.055.293h.1c.347.238.711.45 1.09.635.458.225.937.407 1.43.543.569.157 1.155.25 1.745.275a8.188 8.188 0 002.03-.17s-2.13-1.246-2.19-2.534a7.83 7.83 0 001.403-1.054 6.647 6.647 0 001.054-1.281c.284-.452.502-.942.646-1.456a4.945 4.945 0 00-.555-3.925 5.912 5.912 0 00-1.074-1.297 10.063 10.063 0 00-2.867-1.604" id="32c6b11f-114a-40de-8aae-738c60543e54" stroke="#E60000" stroke-linecap="round" stroke-linejoin="round"/></g></g></g></g></g></g></svg>
